img/favicon/favicon16.svg

<svg width="7" height="10" viewBox="0 0 7 10" fill="none" xmlns="http://www.w3.org/2000/svg">
<path d="M6.84843 5.6002C6.81299 4.65451 6.6712 3.70882 6.6712 2.76313C6.6712 1.99257 6.81299 1.18698 6.52942 0.451445C6.52942 0.381394 6.56486 0.276318 6.56486 0.206267C6.63575 -0.179014 5.39512 0.0311394 5.21789 0.381395C5.11155 0.486471 5.04066 0.591548 5.0761 0.73165C5.0761 0.766676 5.11155 0.801701 5.11155 0.836726C4.86342 1.95754 4.5444 3.07836 4.18994 4.16415C4.04815 4.58446 3.87092 5.00476 3.72913 5.42507C3.51645 5.03979 3.30377 4.65451 3.12654 4.2342C2.63028 3.00831 2.20493 1.78242 1.60233 0.626573C1.67323 0.10119 0.46804 0.136216 0.219914 0.626573C-0.0636594 1.22201 -0.0282126 1.81744 0.0781273 2.48293C0.184467 3.21846 0.219914 3.91897 0.219914 4.65451C0.219914 6.05553 0.3617 7.45655 0.3617 8.85757C0.219914 8.99767 0.184467 9.1728 0.326253 9.34793C0.397147 9.41798 0.46804 9.48803 0.538933 9.55808C0.857953 9.80326 1.77957 9.59311 1.77957 9.10275C1.77957 7.63168 1.67323 6.19563 1.63778 4.72456C1.63778 4.58446 1.63778 4.44436 1.63778 4.30425C1.67323 4.33928 1.67323 4.40933 1.70867 4.44436C1.92135 5.00476 2.16948 5.56517 2.4885 6.09056C2.80752 6.61594 2.9493 7.17635 3.12654 7.73675C3.05564 7.80681 3.0202 7.91188 3.05564 7.98193C3.05564 8.05198 3.09109 8.08701 3.16199 8.12204C3.37467 8.33219 3.83547 8.22711 4.04815 8.12204C4.15449 8.08701 4.26083 8.01696 4.33172 7.98193C4.43806 7.91188 4.65074 7.73675 4.57985 7.56163C4.57985 7.5266 4.5444 7.49158 4.5444 7.45655C4.72164 7.00122 4.79253 6.54589 4.89887 6.05553C5.00521 5.56517 5.18244 5.07482 5.35968 4.58446C5.39512 4.79461 5.39512 5.03979 5.43057 5.24994C5.50146 6.16061 5.43057 7.03624 5.43057 7.94691C5.43057 8.26214 5.46602 8.50732 5.50146 8.82255C5.53691 8.92762 5.64325 9.45301 5.6078 9.48803C5.39512 9.69818 5.46602 9.94336 5.74959 9.97839C6.06861 10.0484 6.49397 9.94336 6.74209 9.73321C7.16745 9.34793 6.95477 8.71747 6.88388 8.22711C6.6712 7.3865 6.84843 6.44081 6.84843 5.6002Z" fill="black"/>
</svg>

<svg width="7" height="10" fill="none" xmlns="http://www.w3.org/2000/svg"><path d="M6.848 5.6c-.035-.945-.177-1.891-.177-2.837 0-.77.142-1.576-.142-2.312 0-.07.036-.175.036-.245.07-.385-1.17-.175-1.347.175-.106.105-.177.21-.142.35 0 .036.036.07.036.106a35.557 35.557 0 01-.922 3.327c-.142.42-.32.84-.46 1.261-.214-.385-.426-.77-.603-1.19C2.63 3.007 2.205 1.781 1.602.626 1.673.1.468.137.22.627c-.284.595-.248 1.19-.142 1.856.106.735.142 1.436.142 2.172 0 1.4.142 2.802.142 4.203-.142.14-.178.315-.036.49l.213.21c.319.245 1.24.035 1.24-.455 0-1.471-.106-2.907-.141-4.378v-.42c.035.034.035.104.07.14.213.56.461 1.12.78 1.646.32.525.461 1.085.639 1.646-.071.07-.107.175-.071.245 0 .07.035.105.106.14.213.21.673.105.886 0 .106-.035.213-.105.284-.14.106-.07.319-.245.248-.42 0-.035-.036-.07-.036-.105.178-.456.249-.911.355-1.401.106-.49.283-.981.46-1.472.036.21.036.456.072.666.07.91 0 1.786 0 2.697 0 .315.035.56.07.876.036.105.142.63.107.665-.213.21-.142.455.142.49.319.07.744-.035.992-.245.425-.385.213-1.016.142-1.506-.213-.84-.036-1.786-.036-2.627z" fill="#000"/></svg>
